X:1
T:Giunto è pur
T:Giunto è pur
T:Claudio Saracini
T:Source : Le secondo Musische per cantar e sonar---Venetia---A.Vincenti---1620. Editor : André Vierendeels (28/11/15).
T:Notes : Original clefs : C1, F4 Editorial accidentals above the staff Figures above the BC are notated in original print 
C:Claudio Saracini
%%score 1 2
L:1/8
Q:1/4=80
M:4/4
K:C
V:1 treble nm="Soprano" snm="S"
V:2 bass nm="BC" snm="BC"
V:1
 d6 cB | A4 G4 | A8 | A8 | e6 dc | B4 A4 | B8 | B8 | d6 AA | A4 B4 | c8 | c8 | ^cc d4 FE | E8 | %14
w: Giun- to'è pur|Li- dia'il|mi-|o,|Giun- to'è pur|Li- dia'il|mi-|o,|non so se|deg- gia|di-|re:|O par- ti- re'o- mo-|ri-|
 D8 | dd e4 ^cc | TB8 | A8 :: d4 e/f/e/f/ B2 | T^c8 | B4 c/d/c/d/ ^F2 | ^G8 | A2 A4 G2 | B4 B4 | %24
w: re,|O par- ti- re'o mo-|ri-|re.|Las- * * * * *|so,|las- * * * * *|so|di- ro ben|i- o,|
 d4 ^d4- | d4 ^d2 dd | e4 e4 | d4 cBAG | ^F2 =F4 ED | E8 | D8 | e4 dcBA | ^G2 c4 BA | B8 | A8 | %35
w: che mor-|* t'e la par-|ti- ta,|poi ch'in la- scian- do|te la- scio la|vi-|ta,|poi ch'in la- scian- do|te la- scio la|vi-|ta,|
 d6 AG | A8 | G8 :| %38
w: la- scio la|vi-|ta.|
V:2
 G,,2 A,,2 B,,2 C,2 | D,4 E,4 | D,8 | D,,8 | C,6 D,2 | E,4 F,4 | E,8 | E,,8 | D,,4 D,4- | D,4 G,4 | %10
 F,8 | F,,8 | A,,2 D,2 A,,4 | A,,8 | D,8 | D,2 ^C,6 | E,8 | A,,8 :: _B,,8 |"^#" A,,8 | B,,8 | %21
"^#" E,8 | D,8 | G,,8 |"^#" D,2 C,2 B,,4- | B,,8 | ^C,8 | B,,4 C,2 D,2- | D,4 A,,4- | A,,8 | D,8 | %31
 C,4 D,2 E,2- | E,2 E,6 | E,8 | A,,8 | G,,4 B,,4 | D,8 | G,,8 :| %38

